X: 18795
T: If We Hadn't Any Women In The World
R: barndance
M: 4/4
K: Gmajor
B>c|:d>ed>B G>AB>G|E>AG>E D2 G>A|B>G (3Bcd g>ed>B|A2 A>G A2 B>c|
d>ed>B G>AB>G|E>AG>E D2 G>A|B>dd>B A>GA>B|G2 G>F G2 (3Bcd||
|:e3f gagf|e>dd>B d2 (3Bcd|e>d (3Bcd g>ed>B|A2 A>G A2 B>c|
d>ed>B D>AB>G|E>AG>E D2 G>A|B>dd>B A>GA>B|G2 G>F G2 (3Bcd:|

